X: 4261
T: The TAPPIT HEN
%R: jig
B: James Kerr "Merry Melodies" v.4 p.28 #261
Z: 2016 John Chambers <jc:trillian.mit.edu>
M: 6/8
L: 1/8
K: A
a |\
AAA c2A | d2e f3 | AAA c2A | dB=G Bcd |\
eAA cAA | d2e fga | ece dB=G | AAA A2 :|
|: e |\
c2e ece | AA=g f3 | c2e ecA | B2c dB=G |\
c2e ece | AA=g f^ga | ece dB=G | AAA A2 :|

%%sep 1 1 500
%%sep 1 1 500

